icons/solid/color-swatch.svg

<svg width="24" height="24" viewBox="0 0 24 24" fill="none" xmlns="http://www.w3.org/2000/svg">
<path fill-rule="evenodd" clip-rule="evenodd" d="M19 22C20.6569 22 22 20.6569 22 19V15C22 13.5624 20.9888 12.361 19.6389 12.0682L13 18.7071V19.5C13 20.08 12.8301 20.9389 12.3058 21.6672C12.2226 21.7827 12.131 21.8941 12.0306 22H19ZM13 17.2929L18.738 11.5549C19.4385 10.4007 19.2902 8.87595 18.2929 7.87868L16.1213 5.70711C15.2772 4.86303 14.0553 4.62708 13 4.99926L13 17.2929ZM9 2C10.6569 2 12 3.34315 12 5V5.59225L12 19.5C12 19.92 11.8699 20.5611 11.4942 21.0828C11.1369 21.5791 10.537 22 9.50001 22H4.99964C3.34255 22 2 20.6566 2 19V5C2 3.34315 3.34315 2 5 2H9ZM7 18C7.55228 18 8 17.5523 8 17C8 16.4477 7.55228 16 7 16C6.44772 16 6 16.4477 6 17C6 17.5523 6.44772 18 7 18Z" fill="currentColor"/>
</svg>

<svg width="24" height="24" fill="none" xmlns="http://www.w3.org/2000/svg"><path fill-rule="evenodd" clip-rule="evenodd" d="M19 22a3 3 0 003-3v-4a3.001 3.001 0 00-2.361-2.932L13 18.708v.792c0 .58-.17 1.439-.694 2.167a3.212 3.212 0 01-.275.333H19zm-6-4.707l5.738-5.738a3.001 3.001 0 00-.445-3.676L16.12 5.707A3 3 0 0013 5v12.294zM9 2a3 3 0 013 3v14.5c0 .42-.13 1.061-.506 1.583-.357.496-.957.917-1.994.917H5a3 3 0 01-3-3V5a3 3 0 013-3h4zM7 18a1 1 0 100-2 1 1 0 000 2z" fill="currentColor"/></svg>
